X: 1
T: Pots And Pencils
M: 6/8
L: 1/8
R: jig
K: Gmaj
|: Gzg gfd | zBd edB | Gzg gfd | zBd age |
g2f gad | zBd eBG | EGD zEG | GzA GF2 :|
|: egd ecB | BGF GBD | zGF GBD | EGF A,DE |
egd ecB | BGF GBd | zGA Bdf | e2d BDg :|
